packages/core/src/svgs/frax.svg

<svg width="24" height="24" viewBox="0 0 24 24" fill="none" xmlns="http://www.w3.org/2000/svg">
<g clip-path="url(#clip0_31_10468)">
<path d="M0 0H24V24H0V0Z" fill="url(#paint0_linear_31_10468)"/>
<path d="M7.30713 15.0041C7.13998 15.1841 6.84427 15.5056 6.5057 15.8613C5.99141 16.4013 5.5757 16.847 5.57141 16.8599C6.0857 17.3741 6.60855 17.8841 7.1357 18.3813L7.19141 18.4284L8.00141 17.5713L8.89284 16.6284C9.80451 17.2404 10.8767 17.5693 11.9747 17.5738C13.0727 17.5784 14.1475 17.2585 15.0643 16.6541L15.09 16.6841C15.6814 17.2627 16.2771 17.837 16.8771 18.407C16.8943 18.4113 18.4328 16.7827 18.4286 16.7656C18.4286 16.757 17.37 15.7327 16.7228 15.1156L16.6628 15.0513C17.2571 14.1426 17.5728 13.08 17.5713 11.9943C17.5698 10.9085 17.251 9.8469 16.6543 8.93986L17.4557 8.087C17.7621 7.77291 18.0607 7.45139 18.3514 7.12272C18.3386 7.08843 16.7614 5.57986 16.74 5.57986C16.7271 5.57986 16.3286 5.99129 15.8571 6.48843C15.4971 6.87415 15.1843 7.19986 15.0514 7.337C14.1581 6.75245 13.1157 6.43684 12.0482 6.42772C10.9807 6.41861 9.93311 6.71637 9.02998 7.28557L8.97427 7.22557L8.20284 6.47986L7.98855 6.27843L7.41427 5.72129L7.25998 5.57129L6.49713 6.38557C6.07284 6.83129 5.7257 7.20415 5.7257 7.21272C5.72141 7.22129 6.09855 7.59843 6.5657 8.04843L7.40141 8.85415C6.78376 9.75682 6.44546 10.8213 6.4287 11.915C6.41193 13.0086 6.71743 14.083 7.30713 15.0041ZM15.4286 11.9999C15.4286 12.9092 15.0673 13.7812 14.4243 14.4242C13.7814 15.0672 12.9093 15.4284 12 15.4284C11.0907 15.4284 10.2186 15.0672 9.57562 14.4242C8.93263 13.7812 8.57141 12.9092 8.57141 11.9999C8.57141 11.0905 8.93263 10.2185 9.57562 9.57549C10.2186 8.93251 11.0907 8.57129 12 8.57129C12.9093 8.57129 13.7814 8.93251 14.4243 9.57549C15.0673 10.2185 15.4286 11.0905 15.4286 11.9999Z" fill="white"/>
</g>
<defs>
<linearGradient id="paint0_linear_31_10468" x1="4.46571" y1="4.16143" x2="29.2071" y2="32.58" gradientUnits="userSpaceOnUse">
<stop stop-color="#1A1E21"/>
<stop offset="1" stop-color="#06060A"/>
</linearGradient>
<clipPath id="clip0_31_10468">
<rect width="24" height="24" fill="white"/>
</clipPath>
</defs>
</svg>

<svg xmlns="http://www.w3.org/2000/svg" width="24" height="24" fill="none" viewBox="0 0 24 24"><g clip-path="url(#a)"><path fill="url(#b)" d="M0 0h24v24H0z"/><path fill="#fff" d="M7.307 15.004c-.167.18-.463.502-.801.857-.515.54-.93.986-.935.999a75 75 0 0 0 1.565 1.521l.055.047.81-.857.892-.943a5.57 5.57 0 0 0 6.171.026l.026.03q.887.868 1.787 1.723c.017.004 1.556-1.624 1.552-1.641 0-.009-1.059-1.033-1.706-1.65l-.06-.065a5.57 5.57 0 0 0-.009-6.111l.802-.853q.46-.472.895-.964c-.012-.035-1.59-1.543-1.611-1.543-.013 0-.411.411-.883.908-.36.386-.673.712-.806.849a5.57 5.57 0 0 0-6.021-.051l-.056-.06-.771-.746-.214-.202-.575-.557-.154-.15-.763.815c-.424.445-.771.818-.771.827-.005.008.373.385.84.835l.835.806a5.57 5.57 0 0 0-.094 6.15M15.43 12a3.428 3.428 0 1 1-6.857 0 3.428 3.428 0 0 1 6.857 0"/></g><defs><linearGradient id="b" x1="4.466" x2="29.207" y1="4.161" y2="32.58" gradientUnits="userSpaceOnUse"><stop stop-color="#1A1E21"/><stop offset="1" stop-color="#06060A"/></linearGradient><clipPath id="a"><path fill="#fff" d="M0 0h24v24H0z"/></clipPath></defs></svg>
